pix_core/t/messages.svg

<!DOCTYPE svg PUBLIC "-//W3C//DTD SVG 1.1//EN" "http://www.w3.org/Graphics/SVG/1.1/DTD/svg11.dtd" [
	<!ENTITY ns_flows "http://ns.adobe.com/Flows/1.0/">
]><svg xmlns="http://www.w3.org/2000/svg" width="12" height="12" viewBox="0 0 12 12" preserveAspectRatio="xMinYMid meet" overflow="visible"><path d="M1 12v-4c-.6 0-1-.4-1-1v-6c0-.6.4-1 1-1h8c.6 0 1 .4 1 1v2h-5c-.6 0-1 .4-1 1v5l-3 3zm10-8h-5c-.5 0-1 .5-1 1v3c0 .5.5 1 1 1h2l3 3v-3c.5 0 1-.5 1-1v-3c0-.5-.5-1-1-1z" fill="#888"/></svg>

<?xml version="1.0" encoding="utf-8"?>
<!-- Generator: Adobe Illustrator 15.1.0, SVG Export Plug-In  -->
<!DOCTYPE svg PUBLIC "-//W3C//DTD SVG 1.1//EN" "http://www.w3.org/Graphics/SVG/1.1/DTD/svg11.dtd" [
	<!ENTITY ns_flows "http://ns.adobe.com/Flows/1.0/">
]>
<svg version="1.1"
	 xmlns="http://www.w3.org/2000/svg" xmlns:xlink="http://www.w3.org/1999/xlink" xmlns:a="http://ns.adobe.com/AdobeSVGViewerExtensions/3.0/"
	 x="0px" y="0px" width="12px" height="12px" viewBox="0 0 12 12" style="overflow:visible;enable-background:new 0 0 12 12;"
	 xml:space="preserve" preserveAspectRatio="xMinYMid meet">
<defs>
</defs>
<path style="fill:#29a1c4;" d="M1,12V8C0.4,8,0,7.6,0,7V1c0-0.6,0.4-1,1-1h8c0.6,0,1,0.4,1,1v2H5C4.4,3,4,3.4,4,4v5c0,0,0,0,0,0
	L1,12z M11,4H6C5.5,4,5,4.5,5,5v3c0,0.5,0.5,1,1,1h2l3,3V9c0.5,0,1-0.5,1-1V5C12,4.5,11.5,4,11,4z"/>
</svg>
